icons/lines/color-swatch.svg

<svg xmlns="http://www.w3.org/2000/svg" width="24" height="24" viewBox="0 0 24 24" fill="none" stroke="currentColor" stroke-width="2" stroke-linecap="round" stroke-linejoin="round" >
  <path d="M10 4.5V18C10 19.08 9.55999 20.07 8.85999 20.79L8.82001 20.83C8.73001 20.92 8.63001 21.01 8.54001 21.08C8.24001 21.34 7.89999 21.54 7.54999 21.68C7.43999 21.73 7.33 21.77 7.22 21.81C6.83 21.94 6.41 22 6 22C5.73 22 5.46001 21.97 5.20001 21.92C5.07001 21.89 4.94 21.86 4.81 21.82C4.65 21.77 4.50001 21.72 4.35001 21.65C4.35001 21.64 4.35 21.64 4.34 21.65C4.06 21.51 3.79001 21.35 3.54001 21.16L3.53 21.15C3.4 21.05 3.28001 20.95 3.17001 20.83C3.06001 20.71 2.95 20.59 2.84 20.46C2.65 20.21 2.49001 19.94 2.35001 19.66C2.36001 19.65 2.36001 19.65 2.35001 19.65C2.35001 19.65 2.35 19.64 2.34 19.63C2.28 19.49 2.22999 19.34 2.17999 19.19C2.13999 19.06 2.10999 18.93 2.07999 18.8C2.02999 18.54 2 18.27 2 18V4.5C2 3 3 2 4.5 2H7.5C9 2 10 3 10 4.5Z"/>
  <path d="M22 16.5V19.5C22 21 21 22 19.5 22H6C6.41 22 6.83 21.94 7.22 21.81C7.33 21.77 7.43999 21.73 7.54999 21.68C7.89999 21.54 8.24001 21.34 8.54001 21.08C8.63001 21.01 8.73001 20.92 8.82001 20.83L8.85999 20.79L15.66 14H19.5C21 14 22 15 22 16.5Z"/>
  <path d="M4.81018 21.82C4.21018 21.64 3.6402 21.31 3.1702 20.83C2.6902 20.36 2.36018 19.79 2.18018 19.19C2.57018 20.44 3.56018 21.43 4.81018 21.82Z"/>
  <path d="M18.3699 11.29L15.6599 14L8.85986 20.79C9.55986 20.07 9.99988 19.08 9.99988 18V8.34001L12.7099 5.63002C13.7699 4.57002 15.1899 4.57002 16.2499 5.63002L18.3699 7.75002C19.4299 8.81002 19.4299 10.23 18.3699 11.29Z"/>
  <path d="M6 19C6.55228 19 7 18.5523 7 18C7 17.4477 6.55228 17 6 17C5.44772 17 5 17.4477 5 18C5 18.5523 5.44772 19 6 19Z"/>
  </svg>

<svg xmlns="http://www.w3.org/2000/svg" width="24" height="24" viewBox="0 0 24 24" fill="none" stroke="currentColor" stroke-width="2" stroke-linecap="round" stroke-linejoin="round">
  <path d="M4.81 21.82a3.84 3.84 0 0 1-2.63-2.63 4 4 0 0 0 2.63 2.63" />
  <path d="M8.82 20.83a3 3 0 0 1-.28.25 3.5 3.5 0 0 1-.99.6 5 5 0 0 1-.33.13A3.9 3.9 0 0 1 6 22a4.3 4.3 0 0 1-.8-.08 6 6 0 0 1-.39-.1 4 4 0 0 1-.46-.17 4.7 4.7 0 0 1-.81-.49 3 3 0 0 1-.37-.33 12 12 0 0 1-.33-.37 5 5 0 0 1-.49-.8 7 7 0 0 1-.17-.47 6 6 0 0 1-.1-.39A4.3 4.3 0 0 1 2 18V4.5C2 3 3 2 4.5 2h3C9 2 10 3 10 4.5V18a4 4 0 0 1-1.14 2.79l9.51-9.5c1.06-1.06 1.06-2.48 0-3.54l-2.12-2.12c-1.06-1.06-2.48-1.06-3.54 0L10 8.34V18a4 4 0 0 1-1.14 2.79za3 3 0 0 1-.28.25 3.5 3.5 0 0 1-.99.6 5 5 0 0 1-.33.13A3.9 3.9 0 0 1 6 22h13.5c1.5 0 2.5-1 2.5-2.5v-3c0-1.5-1-2.5-2.5-2.5h-3.84" />
  <circle cx="6" cy="18" r="1" />
</svg>
